X:641
T:
S:Efter fanjunkaren Lindbohm m. fl.
R:kadrilj
M:2/4
L:1/16
K:C
C2|C2EC G2E2|c2Gc e2c2|^fgag =fedc|c6 B2|
d^cdA fefd|cBcG edec|Adfd BGAB|c2e2c2:|
|:fe|f2d2 a2g2|g4 d2dc|B2d2g2f2|^d2e2 e4|
cedc cgec|dcdA fdBG|c2ce gfdB|c2e2c2:|
|:EF|G2G2 e3d|dcBA AGG2|EFGA GABc|dcec GFEF|
G2G2 e3d|dcBA AGG2|EFGA GABc|dfdB c2:|
|:Bc|e2ed cgec|d2dc BfdB|cagf edcB|g6 fd|
G2G2 e3d|dcBA AGG2|EFGA GABc|dfdB c2:|

